assets/Sled/Flat/sled_flat.svg

<svg width="32" height="32" viewBox="0 0 32 32" fill="none" xmlns="http://www.w3.org/2000/svg">
<path d="M11 22V28H13V22H11Z" fill="#CA0B4A"/>
<path d="M24 22V28H26V22H24Z" fill="#CA0B4A"/>
<path d="M3 16C3.54995 16 3.99622 16.4439 3.99998 16.993L4.00018 17.0004C4.00052 17.0106 4.00135 17.0301 4.00332 17.0577C4.00728 17.1131 4.01568 17.1988 4.03327 17.3044C4.06923 17.5201 4.13928 17.7925 4.26943 18.0528C4.39761 18.3092 4.57419 18.5351 4.82033 18.6992C5.0602 18.8591 5.42498 19 6 19H9V21H6C5.07502 21 4.3148 20.7659 3.71092 20.3633C3.11331 19.9649 2.72739 19.4408 2.48057 18.9472C2.23572 18.4575 2.11827 17.9799 2.06048 17.6331C2.03119 17.4574 2.01616 17.3088 2.0084 17.2002C2.00451 17.1457 2.00241 17.1008 2.00129 17.067C2.00072 17.0501 2.0004 17.036 2.00022 17.0247L2.00004 17.0101L2.00001 17.0045L2 17.0021L2 17.001V17C2.00028 16.4477 2.44772 16 3 16Z" fill="#F8312F"/>
<path d="M3 24C3.54995 24 3.99622 24.4439 3.99998 24.993L4.00018 25.0004C4.00052 25.0106 4.00135 25.0301 4.00332 25.0577C4.00728 25.1131 4.01568 25.1988 4.03327 25.3044C4.06923 25.5201 4.13928 25.7925 4.26943 26.0528C4.39761 26.3092 4.57419 26.5351 4.82033 26.6992C5.0602 26.8591 5.42498 27 6 27H29C29.5523 27 30 27.4477 30 28C30 28.5523 29.5523 29 29 29H6C5.07502 29 4.3148 28.7659 3.71092 28.3633C3.11331 27.9649 2.72739 27.4408 2.48057 26.9472C2.23572 26.4575 2.11827 25.9799 2.06048 25.6331C2.03119 25.4574 2.01616 25.3088 2.0084 25.2002C2.00451 25.1457 2.00241 25.1008 2.00129 25.067C2.00072 25.0501 2.0004 25.036 2.00022 25.0247L2.00004 25.0101L2.00001 25.0045L2 25.0021L2 25.001V25C2.00028 24.4477 2.44772 24 3 24Z" fill="#F8312F"/>
<path d="M8 19.8973L8 21.5C8 22.3284 8.67157 23 9.5 23H27.5C28.3284 23 29 22.3284 29 21.5V19.8973C29 20.4496 28.5523 20.8973 28 20.8973H9C8.44772 20.8973 8 20.4496 8 19.8973Z" fill="#E39D89"/>
<path d="M8 12C8 11.4477 8.44772 11 9 11H28C28.5523 11 29 11.4477 29 12V13.5L28.5 14H8.5L8 13.5V12Z" fill="#F3C07B"/>
<path d="M8 15L8.5 14.5H28.5L29 15V17L28.5 17.5H8.5L8 17V15Z" fill="#F3C07B"/>
<path d="M8.5 18L8 18.5V20C8 20.5523 8.44772 21 9 21H28C28.5523 21 29 20.5523 29 20V18.5L28.5 18H8.5Z" fill="#F3C07B"/>
<path d="M29 13.5H8V15H29V13.5Z" fill="#F3AD61"/>
<path d="M29 17H8V18.5H29V17Z" fill="#F3AD61"/>
</svg>

<svg xmlns="http://www.w3.org/2000/svg" width="32" height="32" fill="none"><path fill="#CA0B4A" d="M11 22v6h2v-6h-2ZM24 22v6h2v-6h-2Z"/><path fill="#F8312F" d="M3 16a1 1 0 0 1 1 .993V17l.003.058a2.69 2.69 0 0 0 .266.995c.129.256.305.482.551.646.24.16.605.301 1.18.301h3v2H6c-.925 0-1.685-.234-2.29-.637a3.632 3.632 0 0 1-1.23-1.416A4.685 4.685 0 0 1 2 17.025V17a1 1 0 0 1 1-1ZM3 24a1 1 0 0 1 1 .993V25l.003.058a2.69 2.69 0 0 0 .266.995c.129.256.305.482.551.646.24.16.605.301 1.18.301h23a1 1 0 1 1 0 2H6c-.925 0-1.685-.234-2.29-.637a3.632 3.632 0 0 1-1.23-1.416A4.685 4.685 0 0 1 2 25.025V25a1 1 0 0 1 1-1Z"/><path fill="#E39D89" d="M8 19.897V21.5A1.5 1.5 0 0 0 9.5 23h18a1.5 1.5 0 0 0 1.5-1.5v-1.603a1 1 0 0 1-1 1H9a1 1 0 0 1-1-1Z"/><path fill="#F3C07B" d="M8 12a1 1 0 0 1 1-1h19a1 1 0 0 1 1 1v1.5l-.5.5h-20l-.5-.5V12ZM8 15l.5-.5h20l.5.5v2l-.5.5h-20L8 17v-2ZM8.5 18l-.5.5V20a1 1 0 0 0 1 1h19a1 1 0 0 0 1-1v-1.5l-.5-.5h-20Z"/><path fill="#F3AD61" d="M29 13.5H8V15h21v-1.5ZM29 17H8v1.5h21V17Z"/></svg>
